fire-hydrant.svg

<svg fill="currentColor" viewBox="0 0 24 24"><path d="M5 15v-1H4v-2h1v-1h2v4zm14-3v-1h-2v4h2v-1h1v-2zm-1-6h-2.14C15.5 4.6 14.4 3.5 13 3.14V2h-2v1.14C9.6 3.5 8.5 4.6 8.14 6H6v2h12zm0 16H6c0-1.1.9-2 2-2V9h8v11a2 2 0 0 1 2 2m-8-9a2 2 0 1 0 4 0c0-1.11-.89-2-2-2s-2 .9-2 2"/></svg>

<svg  viewBox="0 0 24 24" fill="currentColor"><path  d="M5 15V14H4V12H5V11H7V15H5M19 12V11H17V15H19V14H20V12H19M18 6H15.86C15.5 4.6 14.4 3.5 13 3.14V2H11V3.14C9.6 3.5 8.5 4.6 8.14 6H6V8H18V6M18 22H6C6 20.9 6.9 20 8 20V9H16V20C17.11 20 18 20.9 18 22M10 13C10 14.11 10.9 15 12 15S14 14.11 14 13 13.11 11 12 11 10 11.9 10 13Z"/></svg>
